icons/world_care_fill.svg

<svg width="48" height="48" viewBox="0 0 48 48" fill="none" xmlns="http://www.w3.org/2000/svg">
<path fill-rule="evenodd" clip-rule="evenodd" d="M23.9918 26L24 26L24.012 26L24.032 26C29.5548 26 34.032 21.5228 34.032 16C34.032 10.4772 29.5548 6 24.032 6L24.012 6.00002L24 6C23.984 6 23.968 6.0001 23.952 6.00031C18.466 6.04328 14.032 10.5038 14.032 16C14.032 21.4962 18.466 25.9567 23.952 25.9997L23.9918 26ZM31.9701 17H29.9704C29.9293 17.6897 29.8462 18.3588 29.7253 19H31.4505C31.7058 18.3693 31.883 17.6986 31.9701 17ZM30.2774 21H29.1973C28.9923 21.5907 28.7521 22.1432 28.4814 22.6495C29.161 22.1939 29.7669 21.6368 30.2774 21ZM27.6846 19C27.8219 18.373 27.9188 17.7033 27.9664 17H25.032V19H27.6846ZM25.032 21H27.0551C26.8943 21.3774 26.7173 21.7259 26.5277 22.0421C26.0288 22.8735 25.5105 23.3868 25.032 23.6781V21ZM23.032 19V17H20.0336C20.0812 17.7033 20.1781 18.373 20.3154 19H23.032ZM20.9449 21H23.032V23.7159C22.5359 23.4321 21.9935 22.9107 21.4723 22.0421C21.2827 21.7259 21.1057 21.3774 20.9449 21ZM18.2747 19C18.1538 18.3588 18.0707 17.6897 18.0296 17H16.0939C16.181 17.6986 16.3582 18.3693 16.6135 19H18.2747ZM17.7866 21H18.8027C18.9985 21.5643 19.2265 22.0937 19.4825 22.5813C18.8434 22.1387 18.2719 21.6054 17.7866 21ZM29.9704 15C29.9293 14.3103 29.8462 13.6412 29.7253 13H31.4505C31.7058 13.6307 31.883 14.3014 31.9701 15H29.9704ZM30.2774 11H29.1973C28.9923 10.4093 28.7521 9.85681 28.4814 9.35049C29.161 9.80613 29.7669 10.3632 30.2774 11ZM25.032 11H27.0551C26.8943 10.6226 26.7173 10.2741 26.5277 9.95792C26.0288 9.1265 25.5105 8.61316 25.032 8.32189V11ZM27.6846 13H25.032V15H27.9664C27.9188 14.2967 27.8219 13.627 27.6846 13ZM23.032 8.28413V11H20.9449C21.1057 10.6226 21.2827 10.2741 21.4723 9.95792C21.9935 9.08932 22.5359 8.56788 23.032 8.28413ZM23.032 13H20.3154C20.1781 13.627 20.0812 14.2967 20.0336 15H23.032V13ZM19.4825 9.4187C19.2265 9.90631 18.9985 10.4357 18.8027 11H17.7866C18.2719 10.3946 18.8434 9.86132 19.4825 9.4187ZM18.2747 13H16.6135C16.3582 13.6307 16.181 14.3014 16.0939 15H18.0296C18.0707 14.3103 18.1538 13.6412 18.2747 13Z" fill="black"/>
<path d="M10.1087 32.6212C10.6762 33.2231 11.2394 33.8204 11.769 34.5811V36H19.2022V34.5811C19.0687 33.4771 18.8348 31.4876 18.8144 30.9347C18.7858 30.1569 17.7417 28.7393 17.7417 28.7393L14.5371 24.6982C14.5371 24.6982 13.6299 23.7406 13.1108 22.6783C12.5917 21.616 11.487 22.9535 11.3402 23.9093C11.1934 24.8652 11.4727 25.3688 11.4727 25.3688L13.3038 29.0066C13.3038 29.0066 11.1809 26.1005 10.5219 24.9316C10.1881 24.3395 10.0947 23.0861 9.99035 21.685C9.88869 20.3204 9.77661 18.8157 9.4217 17.6458C8.70243 15.2748 6.62043 15.8685 6.25946 16.9277C5.8985 17.9869 5.98024 24.9864 6.1112 26.1534C6.21376 27.0673 6.76461 27.961 7.38611 28.9692C7.55815 29.2483 7.73584 29.5366 7.91069 29.8361C8.6067 31.0283 9.36151 31.8288 10.1087 32.6212Z" fill="black"/>
<path d="M36.2332 34.5811C36.7628 33.8204 37.326 33.2231 37.8935 32.6212C38.6407 31.8288 39.3955 31.0283 40.0915 29.8361C40.2663 29.5366 40.4437 29.2488 40.6157 28.9698C41.2372 27.9616 41.7884 27.0673 41.891 26.1534C42.022 24.9864 42.1037 17.9869 41.7427 16.9277C41.3818 15.8685 39.2998 15.2748 38.5805 17.6458C38.2256 18.8157 38.1135 20.3204 38.0118 21.685C37.9075 23.0861 37.8141 24.3395 37.4803 24.9316C36.8213 26.1005 34.6984 29.0066 34.6984 29.0066L36.5295 25.3688C36.5295 25.3688 36.8088 24.8652 36.662 23.9093C36.5152 22.9535 35.4105 21.616 34.8914 22.6783C34.3723 23.7406 33.4651 24.6982 33.4651 24.6982L30.2605 28.7393C30.2605 28.7393 29.2164 30.1569 29.1878 30.9347C29.1674 31.4876 28.9335 33.4771 28.8 34.5811V36H36.2332V34.5811Z" fill="black"/>
<path d="M26 41C26 41.5523 26.4477 42 27 42H35C35.5523 42 36 41.5523 36 41V39C36 38.4477 35.5523 38 35 38H27C26.4477 38 26 38.4477 26 39V41Z" fill="black"/>
<path d="M22.0022 41C22.0022 41.5523 21.5545 42 21.0022 42H13.0022C12.4499 42 12.0022 41.5523 12.0022 41V39C12.0022 38.4477 12.4499 38 13.0022 38H21.0022C21.5545 38 22.0022 38.4477 22.0022 39V41Z" fill="black"/>
</svg>

<svg
  xmlns="http://www.w3.org/2000/svg"
  width="24"
  height="24"
  viewBox="0 0 24 24"
  fill="none"
  stroke="currentColor"
  stroke-width="2"
  stroke-linecap="round"
  stroke-linejoin="round"
>
  <path
    fill-rule="evenodd"
    d="M23.992 26h.04c5.523 0 10-4.477 10-10s-4.477-10-10-10h-.08c-5.486.043-9.92 4.504-9.92 10s4.434 9.957 9.92 10zm7.978-9h-2q-.062 1.037-.245 2h1.726c.255-.63.432-1.301.52-2m-1.693 4h-1.08c-.205.59-.445 1.143-.716 1.65A8 8 0 0 0 30.277 21m-2.592-2c.137-.627.234-1.297.281-2h-2.934v2zm-2.653 2h2.023a8.5 8.5 0 0 1-.527 1.042c-.5.831-1.017 1.345-1.496 1.636zm-2-2v-2h-2.998c.047.703.144 1.373.281 2zm-2.087 2h2.087v2.716c-.496-.284-1.038-.805-1.56-1.674A8.5 8.5 0 0 1 20.945 21m-2.67-2q-.183-.963-.245-2h-1.936c.087.699.264 1.37.52 2zm-.488 2h1.016c.195.564.424 1.094.68 1.581A8 8 0 0 1 17.787 21m12.183-6a16 16 0 0 0-.245-2h1.726c.255.63.432 1.301.52 2zm.307-4h-1.08a11.5 11.5 0 0 0-.716-1.65A8 8 0 0 1 30.277 11m-5.245 0h2.023a8.5 8.5 0 0 0-.527-1.042c-.5-.832-1.017-1.345-1.496-1.636zm2.653 2h-2.653v2h2.934a14 14 0 0 0-.281-2m-4.653-4.716V11h-2.087q.242-.567.527-1.042c.521-.869 1.064-1.39 1.56-1.674m0 4.716h-2.717a14 14 0 0 0-.281 2h2.998zm-3.55-3.581a11.6 11.6 0 0 0-.68 1.581h-1.015a8 8 0 0 1 1.696-1.581M18.276 13h-1.662a8 8 0 0 0-.52 2h1.937q.062-1.037.245-2"
    clip-rule="evenodd"
  />
  <path d="M10.109 32.621c.567.602 1.13 1.2 1.66 1.96V36h7.433v-1.419c-.133-1.104-.367-3.093-.388-3.646-.028-.778-1.072-2.196-1.072-2.196l-3.205-4.04s-.907-.958-1.426-2.02c-.52-1.063-1.624.274-1.77 1.23-.148.956.132 1.46.132 1.46l1.83 3.638s-2.122-2.907-2.781-4.075c-.334-.592-.427-1.846-.532-3.247-.101-1.365-.213-2.87-.568-4.04-.72-2.37-2.802-1.777-3.163-.717-.36 1.059-.279 8.058-.148 9.225.103.914.654 1.808 1.275 2.816.172.28.35.568.525.867.696 1.192 1.45 1.993 2.198 2.785" />
  <path d="M36.233 34.581c.53-.76 1.093-1.358 1.66-1.96.748-.792 1.502-1.593 2.199-2.785.174-.3.352-.587.524-.866.621-1.008 1.172-1.903 1.275-2.817.131-1.167.213-8.166-.148-9.225-.361-1.06-2.443-1.653-3.163.718-.354 1.17-.466 2.674-.568 4.039-.105 1.401-.198 2.655-.532 3.247-.659 1.169-2.782 4.075-2.782 4.075l1.831-3.638s.28-.504.133-1.46-1.251-2.293-1.77-1.23c-.52 1.062-1.427 2.02-1.427 2.02l-3.205 4.04s-1.044 1.418-1.072 2.196c-.02.553-.255 2.542-.388 3.646V36h7.433z" />
  <path d="M26 41a1 1 0 0 0 1 1h8a1 1 0 0 0 1-1v-2a1 1 0 0 0-1-1h-8a1 1 0 0 0-1 1z" />
  <path d="M22.002 41a1 1 0 0 1-1 1h-8a1 1 0 0 1-1-1v-2a1 1 0 0 1 1-1h8a1 1 0 0 1 1 1z" />
</svg>
